X:123
L:1/8
Q:3/8=100
M:6/8
K:G
 D | G2 G GBG | E3 D3 | DEF G2 B | c2 B{B} A3 | G2 G GBG | E3 C3 | DEF G2 c | BcA G2 :: D | 
 GAB d2 d | edc BAG | G/A/B/c/e d2 d | edc d3 | GAB d2 d | edc BAG | DEF G2 c | BcA G2 :|

